static/assets/template/assets/img/icons/essential/detailed/Trash.svg

<svg height="148" viewBox="0 0 115 148" width="115" xmlns="http://www.w3.org/2000/svg"><g fill="none" fill-rule="evenodd" transform="translate(1 1)"><path d="m74.4 25.3h-36.1c-1.7 0-3.1-1.4-3.1-3.1v-12.2c0-5.2 4.2-9.4 9.4-9.4h23.5c5.2 0 9.4 4.2 9.4 9.4v12.2c0 1.8-1.4 3.1-3.1 3.1zm-33-6.1h29.9v-9.1c0-1.8-1.4-3.2-3.2-3.2h-23.5c-1.8 0-3.2 1.4-3.2 3.2z" fill-rule="nonzero"/><path d="m74.4 25.3h-36.1c-1.7 0-3.1-1.4-3.1-3.1v-12.2c0-5.2 4.2-9.4 9.4-9.4h23.5c5.2 0 9.4 4.2 9.4 9.4v12.2c0 1.8-1.4 3.1-3.1 3.1zm-33-6.1h29.9v-9.1c0-1.8-1.4-3.2-3.2-3.2h-23.5c-1.8 0-3.2 1.4-3.2 3.2z" fill-rule="nonzero"/><path d="m54.4.7h13.7c5.2 0 9.4 4.2 9.4 9.4v12.2c0 1.7-1.4 3.1-3.1 3.1h-36.1c-1.7 0-3.1-1.4-3.1-3.1v-12.2c0-5.2 4.2-9.4 9.4-9.4h.8m25.9 9.9v-.5c0-1.8-1.4-3.2-3.2-3.2h-23.5c-1.8 0-3.2 1.4-3.2 3.2v9.1h29.9v-.5" stroke-linecap="round" stroke-linejoin="round" stroke-width="3"/><path d="m90.4 145.4h-68.2c-7.9 0-14.3-6.4-14.3-14.3v-95.7h96.8v95.7c0 7.9-6.4 14.3-14.3 14.3z" fill-rule="nonzero"/><path d="m104.7 35.5v95.7c0 7.9-6.4 14.3-14.3 14.3h-68.2c-7.9 0-14.3-6.4-14.3-14.3v-95.7z" fill-rule="nonzero"/><path d="m8 35.5h96.8v7h-96.8z" fill="#bfdbfe" fill-rule="nonzero"/><path d="m104.7 119.1v.9" stroke-linecap="round" stroke-linejoin="round" stroke-width="3"/><path d="m104.7 131.1c0 7.9-6.4 14.3-14.3 14.3h-68.2c-7.9 0-14.3-6.4-14.3-14.3v-95.7h96.8v77" stroke-linecap="round" stroke-linejoin="round" stroke-width="3"/><path d="m109.1 35.5h-105.5c-1.7 0-3.1-1.4-3.1-3.1v-2.8c0-7 5.6-12.6 12.6-12.6h86.5c7 0 12.6 5.6 12.6 12.6v2.8c0 1.7-1.4 3.1-3.1 3.1z" fill-rule="nonzero"/><path d="m109.6 35.5h-102.5c-1.4 0-2.6-1.2-2.6-2.6v-.4c0-5.9 4.8-10.6 10.6-10.6h86.5c5.9 0 10.6 4.8 10.6 10.6v.4c0 1.4-1.2 2.6-2.6 2.6z" fill-rule="nonzero"/><path d="m35.2 17h64.4c7 0 12.6 5.6 12.6 12.6v2.8c0 1.7-1.4 3.1-3.1 3.1h-105.5c-1.7 0-3.1-1.4-3.1-3.1v-2.8c0-7 5.6-12.6 12.6-12.6h1.2" stroke-linecap="round" stroke-linejoin="round" stroke-width="3"/><path d="m22.2 17h2.5" stroke-linecap="round" stroke-linejoin="round" stroke-width="3"/><path d="m28.6 126.8c-2.4 0-4.4-1.8-4.4-4v-68.9c0-2.2 1.9-4 4.4-4 2.4 0 4.4 1.8 4.4 4v68.9c0 2.2-2 4-4.4 4z" fill="#bfdbfe" fill-rule="nonzero"/><path d="m55.7 126.8c-2.4 0-4.4-1.8-4.4-4v-68.9c0-2.2 1.9-4 4.4-4s4.4 1.8 4.4 4v68.9c0 2.2-2 4-4.4 4z" fill="#bfdbfe" fill-rule="nonzero"/><path d="m82.8 126.8c-2.4 0-4.4-1.8-4.4-4v-68.9c0-2.2 1.9-4 4.4-4 2.4 0 4.4 1.8 4.4 4v68.9c-.1 2.2-2 4-4.4 4z" fill="#bfdbfe" fill-rule="nonzero"/><g stroke-linecap="round" stroke-linejoin="round" stroke-width="3"><path d="m33 110.4v1"/><path d="m33 117.8v5.1c0 2.2-1.9 4-4.4 4-2.4 0-4.4-1.8-4.4-4v-68.9c0-2.2 1.9-4 4.4-4 2.4 0 4.4 1.8 4.4 4v40.8"/><path d="m55.7 126.8c-2.4 0-4.4-1.8-4.4-4v-68.9c0-2.2 1.9-4 4.4-4s4.4 1.8 4.4 4v68.9c0 2.2-2 4-4.4 4z"/><path d="m78.4 91.8v-20.9"/><path d="m78.4 61.1v-7.1c0-2.2 1.9-4 4.4-4 2.4 0 4.4 1.8 4.4 4v68.9c0 2.2-1.9 4-4.4 4-2.4 0-4.4-1.8-4.4-4v-20.9"/></g></g></svg>

<?xml version="1.0" encoding="UTF-8"?>
<svg width="115px" height="148px" viewBox="0 0 115 148" version="1.1" xmlns="http://www.w3.org/2000/svg" xmlns:xlink="http://www.w3.org/1999/xlink">
    <!-- Generator: Sketch 51.2 (57519) - http://www.bohemiancoding.com/sketch -->
    <title>Trash</title>
    <desc>Created with Sketch.</desc>
    <defs></defs>
    <g id="Page-1" stroke="none" stroke-width="1" fill="none" fill-rule="evenodd">
        <g id="Trash" transform="translate(1.000000, 1.000000)">
            <path d="M74.4,25.3 L38.3,25.3 C36.6,25.3 35.2,23.9 35.2,22.2 L35.2,10 C35.2,4.8 39.4,0.6 44.6,0.6 L68.1,0.6 C73.3,0.6 77.5,4.8 77.5,10 L77.5,22.2 C77.5,24 76.1,25.3 74.4,25.3 Z M41.4,19.2 L71.3,19.2 L71.3,10.1 C71.3,8.3 69.9,6.9 68.1,6.9 L44.6,6.9 C42.8,6.9 41.4,8.3 41.4,10.1 L41.4,19.2 Z" id="Shape" class="fill-neutral" fill-rule="nonzero"></path>
            <path d="M74.4,25.3 L38.3,25.3 C36.6,25.3 35.2,23.9 35.2,22.2 L35.2,10 C35.2,4.8 39.4,0.6 44.6,0.6 L68.1,0.6 C73.3,0.6 77.5,4.8 77.5,10 L77.5,22.2 C77.5,24 76.1,25.3 74.4,25.3 Z M41.4,19.2 L71.3,19.2 L71.3,10.1 C71.3,8.3 69.9,6.9 68.1,6.9 L44.6,6.9 C42.8,6.9 41.4,8.3 41.4,10.1 L41.4,19.2 Z" id="Shape" class="fill-primary-500" fill-rule="nonzero"></path>
            <path d="M54.4,0.7 L68.1,0.7 C73.3,0.7 77.5,4.9 77.5,10.1 L77.5,22.3 C77.5,24 76.1,25.4 74.4,25.4 L38.3,25.4 C36.6,25.4 35.2,24 35.2,22.3 L35.2,10.1 C35.2,4.9 39.4,0.7 44.6,0.7 L45.4,0.7 M71.3,10.6 L71.3,10.1 C71.3,8.3 69.9,6.9 68.1,6.9 L44.6,6.9 C42.8,6.9 41.4,8.3 41.4,10.1 L41.4,19.2 L71.3,19.2 L71.3,18.7" id="Shape" class="stroke-primary" stroke-width="3" stroke-linecap="round" stroke-linejoin="round"></path>
            <path d="M90.4,145.4 L22.2,145.4 C14.3,145.4 7.9,139 7.9,131.1 L7.9,35.4 L104.7,35.4 L104.7,131.1 C104.7,139 98.3,145.4 90.4,145.4 Z" id="Shape" class="fill-neutral" fill-rule="nonzero"></path>
            <path d="M104.7,35.5 L104.7,131.2 C104.7,139.1 98.3,145.5 90.4,145.5 L22.2,145.5 C14.3,145.5 7.9,139.1 7.9,131.2 L7.9,35.5 L104.7,35.5 Z" id="Shape" class="fill-primary-100" fill-rule="nonzero"></path>
            <rect id="Rectangle-path" fill="#BFDBFE" fill-rule="nonzero" x="8" y="35.5" width="96.8" height="7"></rect>
            <path d="M104.7,119.1 L104.7,120" id="Shape" class="stroke-primary" stroke-width="3" stroke-linecap="round" stroke-linejoin="round"></path>
            <path d="M104.7,131.1 C104.7,139 98.3,145.4 90.4,145.4 L22.2,145.4 C14.3,145.4 7.9,139 7.9,131.1 L7.9,35.4 L104.7,35.4 L104.7,112.4" id="Shape" class="stroke-primary" stroke-width="3" stroke-linecap="round" stroke-linejoin="round"></path>
            <path d="M109.1,35.5 L3.6,35.5 C1.9,35.5 0.5,34.1 0.5,32.4 L0.5,29.6 C0.5,22.6 6.1,17 13.1,17 L99.6,17 C106.6,17 112.2,22.6 112.2,29.6 L112.2,32.4 C112.2,34.1 110.8,35.5 109.1,35.5 Z" id="Shape" class="fill-neutral" fill-rule="nonzero"></path>
            <path d="M109.6,35.5 L7.1,35.5 C5.7,35.5 4.5,34.3 4.5,32.9 L4.5,32.5 C4.5,26.6 9.3,21.9 15.1,21.9 L101.6,21.9 C107.5,21.9 112.2,26.7 112.2,32.5 L112.2,32.9 C112.2,34.3 111,35.5 109.6,35.5 Z" id="Shape" class="fill-primary-100" fill-rule="nonzero"></path>
            <path d="M35.2,17 L99.6,17 C106.6,17 112.2,22.6 112.2,29.6 L112.2,32.4 C112.2,34.1 110.8,35.5 109.1,35.5 L3.6,35.5 C1.9,35.5 0.5,34.1 0.5,32.4 L0.5,29.6 C0.5,22.6 6.1,17 13.1,17 L14.3,17" id="Shape" class="stroke-primary" stroke-width="3" stroke-linecap="round" stroke-linejoin="round"></path>
            <path d="M22.2,17 L24.7,17" id="Shape" class="stroke-primary" stroke-width="3" stroke-linecap="round" stroke-linejoin="round"></path>
            <path d="M28.6,126.8 C26.2,126.8 24.2,125 24.2,122.8 L24.2,53.9 C24.2,51.7 26.1,49.9 28.6,49.9 C31,49.9 33,51.7 33,53.9 L33,122.8 C33,125 31,126.8 28.6,126.8 Z" id="Shape" fill="#BFDBFE" fill-rule="nonzero"></path>
            <path d="M55.7,126.8 C53.3,126.8 51.3,125 51.3,122.8 L51.3,53.9 C51.3,51.7 53.2,49.9 55.7,49.9 C58.2,49.9 60.1,51.7 60.1,53.9 L60.1,122.8 C60.1,125 58.1,126.8 55.7,126.8 Z" id="Shape" fill="#BFDBFE" fill-rule="nonzero"></path>
            <path d="M82.8,126.8 C80.4,126.8 78.4,125 78.4,122.8 L78.4,53.9 C78.4,51.7 80.3,49.9 82.8,49.9 C85.2,49.9 87.2,51.7 87.2,53.9 L87.2,122.8 C87.1,125 85.2,126.8 82.8,126.8 Z" id="Shape" fill="#BFDBFE" fill-rule="nonzero"></path>
            <path d="M33,110.4 L33,111.4" id="Shape" class="stroke-primary" stroke-width="3" stroke-linecap="round" stroke-linejoin="round"></path>
            <path d="M33,117.8 L33,122.9 C33,125.1 31.1,126.9 28.6,126.9 C26.2,126.9 24.2,125.1 24.2,122.9 L24.2,54 C24.2,51.8 26.1,50 28.6,50 C31,50 33,51.8 33,54 L33,94.8" id="Shape" class="stroke-primary" stroke-width="3" stroke-linecap="round" stroke-linejoin="round"></path>
            <path d="M55.7,126.8 C53.3,126.8 51.3,125 51.3,122.8 L51.3,53.9 C51.3,51.7 53.2,49.9 55.7,49.9 C58.2,49.9 60.1,51.7 60.1,53.9 L60.1,122.8 C60.1,125 58.1,126.8 55.7,126.8 Z" id="Shape" class="stroke-primary" stroke-width="3" stroke-linecap="round" stroke-linejoin="round"></path>
            <path d="M78.4,91.8 L78.4,70.9" id="Shape" class="stroke-primary" stroke-width="3" stroke-linecap="round" stroke-linejoin="round"></path>
            <path d="M78.4,61.1 L78.4,54 C78.4,51.8 80.3,50 82.8,50 C85.2,50 87.2,51.8 87.2,54 L87.2,122.9 C87.2,125.1 85.3,126.9 82.8,126.9 C80.4,126.9 78.4,125.1 78.4,122.9 L78.4,102" id="Shape" class="stroke-primary" stroke-width="3" stroke-linecap="round" stroke-linejoin="round"></path>
        </g>
    </g>
</svg>
